X:1
T:Peacock's Feather #2, The
R:hornpipe
M:C|
K:D
AG|FE (3FED A2AB|de (3fed B2ef|(3gfe fd ecdB|AGFD E2AG|
FE (3FED A2AB|defd B2ef|(3gfe fd ecdB|Adfe d2:|
fg|(3agf ge fdec|defd B2ef|(3gfe fd ecdB|AGFD E2AG|
FE (3FED A2AB|defd B2ef|(3gfe fd ecdB|Adfe d2:|
</abc>
